X: 25075
T: Maids Of Ireland
R: reel
M: 4/4
K: Adorian
|:"Am"EAAB cBce|"G"dG~GG EGDG|"Am"EAAB cBce|"G"dGGG EG A2|
"Am"EAAB cBce|"G"dGGG EGDG|"Am"EAAB cBce|"G"dBgd "Am"BA A2:|
|:"Am"eAea gedg|"C"eg~gg "D"f2 gf|"Am"eAea gfdg|"C"eggg "D"fdAe|
"Am"eAea gedg|"Em"eaaa abga|"G"bgaf gedg|"G"edgd "Am"BA A2:|

